src/assets/images/globe.svg

<svg xmlns="http://www.w3.org/2000/svg" width="24" height="24" fill="none">
  <path fill="#fff" fill-rule="evenodd" d="M19.8649 17.2c-.1292-.1201-.2273-.2447-.2605-.36-.1305-.457.0416-1.7852.3004-2.1999.258-.4162-.0278-1.6651-.1122-1.8718-.0868-.2079-.1159-.4777-.4121-.3959-.2979.0834-.9673.0523-1.5727-.0722-.607-.1234-1.1355-.7081-1.2564-1.3674-.1354-.7391-.1354-1.45713.0374-1.90733.1932-.50607.6689-.69764 1.1044-.9363.2006-.10936 1.1712-.26421 1.1347-.73117-.2256-.43024-2.2861.05907-2.3687-.60944-.0836-.6697-.1131-1.00575.1483-1.54455.2742-.56194-.0411-.48691-.1168-1.16818-.0103-.09699.2045-.34763.2215-.43583.7109.4043 1.3786.88762 1.9777 1.46313C20.5667 6.8667 21.6 9.26454 21.6 11.8152c0 1.9517-.6095 3.8103-1.7351 5.3848Zm-4.4212-.3029c-.4097.6505-.3112 1.1297-1.2459 1.627-.5206.2773-.891.3559-1.1664 1.1007-.2766.7432-.7352.717-1.8801 1.3208-1.1466.6053-1.60202 0-1.69541-.4643-.093-.4643.18956-1.561.18956-1.561s.11207-.3276-.70024-.6976c-2.05423-.9355-.28177-4.2198-.28177-4.2198-.46418-.5433-1.64291-1.6089-3.2886-1.9579C3.80148 11.7121 3.3528 10.7887 2.8 9.867c.40457-1.70645 1.25464-3.27465 2.50967-4.54823C7.10479 3.49786 9.49086 2.4 12.0315 2.4c0 0 .8568 0 1.6656.2124-.7396.81413-1.567 1.63712-2.1818 1.86403-1.1068.41109-1.61987 1.08456-1.62464 1.80196-.00239.3716.76704 1.04506.76704 1.89708 0 1.44809-1.06272 1.48155-1.18671.87135-.27978-1.38401-1.35002-1.02652-2.63168-.88788-1.28364.13985-2.06138 1.65123-1.23715 2.25576.82583.6046.78331-.191 1.10084-.41793.31594-.22731.53929-.31718.77933 0 .23805.31723.75429.48973.70461 1.14063-.04331.6505-.18241 1.2074.68991 1.2074.87114 0 .90134.1943 1.45415.4728.5472.2789 1.0655.2265 1.5221.32.4586.0923 1.0595.9903 1.0595.9903 1.2999.426 1.7275.6001 2.0864.9628.3577.3627.8592 1.1555.4447 1.8064ZM11.9986 0h-.0064C7.23149 0 3.13019 2.7812 1.19038 6.8.430136 8.3748 9e-8 10.1344 9e-8 12-.00080016 18.6264 5.3653 24 11.9938 24h.0064C18.6263 24 24.0008 18.6264 24 12.0016 24.0008 5.314 18.5467 0 11.9986 0Z" clip-rule="evenodd"/>
</svg>

<svg width="24" height="24" viewBox="0 0 24 24" fill="none" xmlns="http://www.w3.org/2000/svg">
<path fill-rule="evenodd" clip-rule="evenodd" d="M19.8649 17.2C19.7357 17.0799 19.6376 16.9553 19.6044 16.84C19.4739 16.383 19.646 15.0548 19.9048 14.6401C20.1628 14.2239 19.877 12.975 19.7926 12.7683C19.7058 12.5604 19.6767 12.2906 19.3805 12.3724C19.0826 12.4558 18.4132 12.4247 17.8078 12.3002C17.2008 12.1768 16.6723 11.5921 16.5514 10.9328C16.416 10.1937 16.416 9.47567 16.5888 9.02547C16.782 8.5194 17.2577 8.32783 17.6932 8.08917C17.8938 7.97981 18.8644 7.82496 18.8279 7.358C18.6023 6.92776 16.5418 7.41707 16.4592 6.74856C16.3756 6.07886 16.3461 5.74281 16.6075 5.20401C16.8817 4.64207 16.5664 4.7171 16.4907 4.03583C16.4804 3.93884 16.6952 3.6882 16.7122 3.6C17.4231 4.0043 18.0908 4.48762 18.6899 5.06313C20.5667 6.8667 21.6 9.26454 21.6 11.8152C21.6 13.7669 20.9905 15.6255 19.8649 17.2ZM15.4437 16.8971C15.034 17.5476 15.1325 18.0268 14.1978 18.5241C13.6772 18.8014 13.3068 18.88 13.0314 19.6248C12.7548 20.368 12.2962 20.3418 11.1513 20.9456C10.0047 21.5509 9.54928 20.9456 9.45589 20.4813C9.36289 20.017 9.64545 18.9203 9.64545 18.9203C9.64545 18.9203 9.75752 18.5927 8.94521 18.2227C6.89098 17.2872 8.66344 14.0029 8.66344 14.0029C8.19926 13.4596 7.02053 12.394 5.37484 12.045C3.80148 11.7121 3.3528 10.7887 2.8 9.867C3.20457 8.16055 4.05464 6.59235 5.30967 5.31877C7.10479 3.49786 9.49086 2.4 12.0315 2.4C12.0315 2.4 12.8883 2.4 13.6971 2.6124C12.9575 3.42653 12.1301 4.24952 11.5153 4.47643C10.4085 4.88752 9.89543 5.56099 9.89066 6.27839C9.88827 6.64999 10.6577 7.32345 10.6577 8.17547C10.6577 9.62356 9.59498 9.65702 9.47099 9.04682C9.19121 7.66281 8.12097 8.0203 6.83931 8.15894C5.55567 8.29879 4.77793 9.81017 5.60216 10.4147C6.42799 11.0193 6.38547 10.2237 6.703 9.99677C7.01894 9.76946 7.24229 9.67959 7.48233 9.99677C7.72038 10.314 8.23662 10.4865 8.18694 11.1374C8.14363 11.7879 8.00453 12.3448 8.87685 12.3448C9.74799 12.3448 9.77819 12.5391 10.331 12.8176C10.8782 13.0965 11.3965 13.0441 11.8531 13.1376C12.3117 13.2299 12.9126 14.1279 12.9126 14.1279C14.2125 14.5539 14.6401 14.728 14.999 15.0907C15.3567 15.4534 15.8582 16.2462 15.4437 16.8971ZM11.9986 0H11.9954H11.9922C7.23149 0 3.13019 2.7812 1.19038 6.8C0.430136 8.3748 8.94955e-08 10.1344 8.94955e-08 12C-0.000800164 18.6264 5.3653 24 11.9938 24H11.997H12.0002C18.6263 24 24.0008 18.6264 24 12.0016C24.0008 5.314 18.5467 0 11.9986 0Z" fill="white"/>
</svg>
